X:1
T:Las, si tu veulx
T:Pellegrune Symon
T:Source: Livre VII de chansons nouvelles à 4 ---Paris---N.du Chemin---1550 Editor : André Vierendeels (31/01/18). Notes : Original clefs : C1, C2, C4, F4 Original note values have been halved Original note values have been quartered in 3-beat measures Editorial accidentals above the stave Dotted brackets indicate black notes.
T:Las, si tu veulx
T:©
T:©
T:©
T:©
T:©
C:Pellegrune Symon
Z:©
%%score [ 1 2 3 4 ]
L:1/8
Q:1/4=120
M:2/2
K:F
V:1 treble nm="Soprano" snm="S"
V:2 treble nm="Alto" snm="A"
V:3 treble-8 nm="Tenor" snm="T"
V:4 bass nm="Bass" snm="B"
V:1
 B4 B2 A2 | B2 d2 c2 B2 | A2 B3 A/G/ A2 | B2 d2 dcBA | B4 A4 | G4 z2 A2 | AGAB c3 B/A/ | %7
w: Las, si tu|veulx en aul- tre|part ay- * * *|mer, ne tour- * * *|* ne|plus de-|vers _ _ _ _ _ _|
w: Ta bou- che'aus-|si ie te sup-|pli _ _ _ fer-|mer, dont i'ay _ _ _|_ ou-|y maintz|pro- * * * * * *|
 G3 A B2 A2- |"^#" A2 G4 F2 |1[M:2/4] G4 :|2[M:3/4] G4 z2 || G2 G2 G2 | F4 A2 | A4 A2 | G4 G2 | %15
w: moy _ _ tes|_ beaulx- *|yeulx,|eux,|plus rou- g'el-|l'est que|cou- rail|pre- ci-|
w: pro- * * pos|_ gra- ti-|eux,||||||
[M:2/2] F2 F2 F2 F2 | D2 F2 G2 A2 | B2 c3 B B2- | B2 A2 B4 | B4 G4 | G4 F2 B2 | A2 F2 G2 G2 | %22
w: eux, et à bai-|ser el- le don-|ne tant _ d'ai-|* * se,|qu'il ne|te fault point|trou- ver en- nuy-|
w: |||||||
 F2 A2 G2 A2 | E2 A2 c2 c2 | BG A2 G2 z D | F2 G2 F2 A2 | G2 FA c2 c2 | B2 A3 G G2- | %28
w: eux, s'il me des-|plaist, quand un aul-|tre te bai- se, quand|un aul- tre te|bai- se, quand un aul-|tre te _ bai-|
w: ||||||
[M:2/4] G2 F2 |[M:2/2] G8 |] %30
w: |se.|
w: ||
V:2
 F4 G2 F2 | D2 F2 F3 F |"^b" F2 E2 F4 | z2 D2 D2 D2 | B,CDE F2 F2 | D2 D4 F2- | FE/D/CD EF G2- | %7
w: Las, si tu|veulx en aul- tre|part ay- mer,|ne tour- ne|plus _ _ _ _ de-|vers moy tes|_ _ _ _ _ _ _ beaulx|
w: Ta bou- che'aus-|si ie te sup-|pli fer- mer,|dont i'ay ou-|y _ _ _ _ maintz|pro- pos gra-||
 GF D4 F2 | E2 C2 D4 |1[M:2/4] D4 :|2[M:3/4] D4 z2 || D2 E2 D2 | D4 C2 | F4 F2 |"^b""^b" E2 E4 | %15
w: _ _ _ _||yeulx,|eux,|plus rou- ge'el-|l'est que|cou- rail|pre- ci-|
w: |* * ti-|eux,||||||
[M:2/2] D2 D2 D2 D2 | FEDC D2 F2 | G3 G G2 E2 | F4 D4 | D4 _E4 | _E4 D2 F2 | E2 D2 D2 C2 | D8 | %23
w: eux, et à bai-|ser _ _ _ _ el-|le don- ne tant|d'ai- se,|qu'il ne|te fault point|trou- ver en- nuy-|eux,|
w: ||||||||
 z2 D2 C2 E2 | D2 F2 F2 D2 | DA, C2 D2 CF | E2 D2 z C F2 | D4 E2 C2 |[M:2/4] D4 |[M:2/2] D8 |] %30
w: s'il me des-|plaist, s'il le des-|plaist quand un aul- tre te|bai- se, quand un|aul- tre te|bai-|se.|
w: |||||||
V:3
"^b" d4 e2 c2 | B2 B2 c2 d2 | d2 cB c2 c2 | B2 B2 BAGF | G2 G2 F2 A2 | B2 B2 d3 c/B/ | %6
w: Las, si tu|veulx en aul- tre|part _ _ _ ay-|mer, ne tour- * * *|* ne plus, de-|vers moy tes _ _|
w: Ta bou- che'aus-|si ie te sup-|pli _ _ _ fer-|mer, dont i'ay _ _ _|_ ou- y maintz|pro- pos gra- * *|
 A2 c3 B/A/ G2- | GABc d4 | cBAG A4 |1[M:2/4] G4 :|2[M:3/4] G4 z2 || B2 c2 B2 | A4 A2 | c4 d2 | %14
w: _ beaulx _ _ _|_ _ _ _ _||yeulx,|eux,|plus rou- g'el-|l'est que|cou- rail|
w: * ti- * * *|||eux,|||||
 B2 c4 |[M:2/2] A2 A2 B2 A2 | F2 A2 B2 d2 | d2 e2 d2 cB |"^b" c4 B4 | B4 B4 | c4 A2 d2 | %21
w: pre- ci-|eux, et à bai-|ser el- le don-|ne tant d'ai- * *|* se,|qu'il ne|te fault pont|
w: |||||||
 c2 B2 G2 G2 | A2 A2 B2 A2- | AG F2 E2 A2 | B2 d2 cA B2 | A2 z G A2 c2 | cBAG A2 A2 | B2 d2 cBAG | %28
w: trou- ver en- nuy-|eux, s'il me des-|* * * * plaist|qu'un aul- tre te bai-|se, quand un aul-|tre _ _ _ _ te|bai- se, te _ _ _|
w: |||||||
[M:2/4] A4 |[M:2/2] G8 |] %30
w: bai-|se.|
w: ||
V:4
 B,,4 _E,2 F,2 | B,,2 B,,2 F,2 B,,2 | F,2 G,2 F,4 | B,,4 z2 G,,2 | G,,A,,B,,C, D,2 D,2 | %5
w: Las, si tu|veulx en au- tre|part _ ay-|mer, ne|tour- * * * * ne|
w: Ta bou- che'aus-|si ie te supli|_ _ fer-|mer, dont|i'ay- * * * * ou-|
 G,,2 G,2 G,2 D,2 | F,3 E,/D,/ C,3 D, | E,F, G,4 D,2 | E,4 D,4 |1[M:2/4] G,,4 :|2[M:3/4] G,,4 z2 || %11
w: plus de- vers moy|tes _ _ _ _|_ _ _ _|* beaulx|yeulx,|eux,|
w: y maintz pro- pos|gra- * * * *||* ti-|eux,||
 G,2 C,2 G,2 | D,4 F,2 | F,4 D,2 |"^b" E,2 C,4 |[M:2/2] D,4 z2 D,2 | D,2 D,2 G,,2 D,2 | %17
w: plus rou- g'el-|l'est que|cou- rail|pre- ci-|eux, et|à bai- ser el-|
w: ||||||
 G,2 C,2 G,2 G,2 | F,4 B,,4 | B,,4 _E,4 | C,4 D,2 B,,2 | C,2 D,2 E,2 E,2 | D,4 z2 D,2 | %23
w: le don- ne tant|d'ai- se,|qu'il ne|te fault pont|trou- ver en- nuy-|eux, s'il|
w: ||||||
 C,2 D,2 A,,4 | z2 B,,2 F,2 G,2 | D,F, E,2 D,2 A,,2 | C,2 D,2 A,,F, F,2 | G,2 D,F, E,4 | %28
w: me des- plaist|quand un aul-|tre te bai- se, te|bai- * se, quand un|aul- tre te bai-|
w: |||||
[M:2/4] D,4 |[M:2/2] G,,8 |] %30
w: |se.|
w: ||

